src/assets/planet-b.svg

<?xml version="1.0" encoding="UTF-8"?>
<svg width="112px" height="112px" viewBox="0 0 112 112" version="1.1" xmlns="http://www.w3.org/2000/svg" xmlns:xlink="http://www.w3.org/1999/xlink">
    <!-- Generator: Sketch 52.6 (67491) - http://www.bohemiancoding.com/sketch -->
    <title>planet-with-shadow</title>
    <desc>Created with Sketch.</desc>
    <g id="Page-1" stroke="none" stroke-width="1" fill="none" fill-rule="evenodd">
        <g id="reactjs-girls-conf" transform="translate(-1285.000000, -123.000000)">
            <g id="Group-7" transform="translate(138.000000, -195.000000)">
                <g id="bg" transform="translate(476.000000, 0.000000)">
                    <g id="Group-5" transform="translate(40.000000, 0.000000)">
                        <g id="planet-with-shadow" transform="translate(631.000000, 318.000000)">
                            <path d="M55.6214085,111.704225 C86.2084507,111.704225 111.140282,86.776338 111.140282,56.1892958 C111.140282,25.6298592 86.2084507,0.701971831 55.6214085,0.701971831 C25.0659155,0.701971831 0.134084507,25.6298592 0.134084507,56.1892958 C0.134084507,86.776338 25.0659155,111.704225 55.6214085,111.704225" id="Fill-32" fill="#5F6B9B"></path>
                            <path d="M55.6214085,0.701971831 C86.2952113,0.701971831 111.140282,25.5470423 111.140282,56.1892958 C111.140282,86.8591549 86.2952113,111.704225 55.6214085,111.704225 C50.0450704,110.185915 38.2850704,109.27493 40.1622535,104.029859 C41.1323944,101.43493 48.5307042,105.078873 55.8659155,105.658592 C65.6383099,106.403944 75.9391549,104.388732 77.0749296,101.24169 C78.7549296,96.5211268 66.9949296,99.668169 53.444507,98.9504225 C37.3780282,98.0670423 18.8822535,93.3464789 19.3476056,85.8929577 C19.7104225,80.2061972 35.9425352,87.5216901 51.8670423,88.9571831 C68.1543662,90.4202817 84.1656338,85.9757746 84.9622535,76.5346479 C85.7983099,66.9278873 70.1183099,69.3571831 51.9774648,68.9430986 C35.0276056,68.5290141 13.5267606,62.7594366 12.7774648,52.5453521 C12.004507,41.5030986 29.3171831,46.1132394 45.7701408,45.7819718 C62.3335211,45.4507042 78.0135211,40.1780282 75.1109859,29.1633803 C73.5098592,23.1453521 63.6822535,26.9549296 51.4805634,27.5070423 C39.1447887,28.0867606 24.4585915,25.4366197 23.4884507,20.4123944 C21.6664789,10.8884507 43.9402817,1.91661972 55.6214085,0.701971831" id="Fill-33" fill="#172249" opacity="0.2"></path>
                            <path d="M55.6214085,0.701971831 C57.4433803,0.701971831 59.2416901,0.784788732 61.0084507,0.950422535 C60.5904225,0.950422535 60.1723944,0.922816901 59.7622535,0.922816901 C29.12,0.922816901 4.25126761,25.795493 4.25126761,56.4377465 C4.25126761,85.2856338 26.2805634,108.998873 54.4067606,111.704225 C24.3166197,111.04169 0.134084507,86.4450704 0.134084507,56.1892958 C0.134084507,25.5470423 24.9791549,0.701971831 55.6214085,0.701971831" id="Fill-34" fill="#FFFFFF" opacity="0.130066"></path>
                        </g>
                    </g>
                </g>
            </g>
        </g>
    </g>
</svg>

<svg width="112" height="112" xmlns="http://www.w3.org/2000/svg"><g fill="none" fill-rule="evenodd"><path d="M55.621 111.704c30.587 0 55.52-24.928 55.52-55.515C111.14 25.63 86.207.702 55.62.702 25.066.702.134 25.63.134 56.189c0 30.587 24.932 55.515 55.487 55.515" fill="#5F6B9B"/><path d="M55.621.702c30.674 0 55.52 24.845 55.52 55.487 0 30.67-24.846 55.515-55.52 55.515-5.576-1.518-17.336-2.43-15.459-7.674.97-2.595 8.369 1.049 15.704 1.629 9.772.745 20.073-1.27 21.209-4.417 1.68-4.72-10.08-1.574-23.63-2.292-16.067-.883-34.563-5.604-34.097-13.057.362-5.687 16.595 1.629 32.519 3.064 16.287 1.463 32.299-2.981 33.095-12.422.836-9.607-14.844-7.178-32.985-7.592-16.95-.414-38.45-6.184-39.2-16.398-.772-11.042 16.54-6.432 32.993-6.763 16.564-.331 32.244-5.604 29.341-16.619-1.601-6.018-11.429-2.208-23.63-1.656-12.336.58-27.022-2.07-27.993-7.095C21.666 10.888 43.94 1.917 55.621.702" fill="#172249" opacity=".2"/><path d="M55.621.702c1.822 0 3.62.083 5.387.248-.418 0-.836-.027-1.246-.027-30.642 0-55.51 24.872-55.51 55.515 0 28.848 22.029 52.56 50.155 55.266C24.317 111.042.134 86.445.134 56.19.134 25.547 24.98.702 55.621.702" fill="#FFF" opacity=".13"/></g></svg>
